images/vk.svg

<svg width="16" height="16" viewBox="0 0 16 16" fill="none" xmlns="http://www.w3.org/2000/svg">
<path fill-rule="evenodd" clip-rule="evenodd" d="M16 8C16 12.4183 12.4183 16 8 16C3.58172 16 0 12.4183 0 8C0 3.58172 3.58172 0 8 0C12.4183 0 16 3.58172 16 8ZM8.39228 9.98325H7.91409C7.91409 9.98325 6.85898 10.0389 5.92986 9.19111C4.91657 8.26636 4.02166 6.43135 4.02166 6.43135C4.02166 6.43135 3.97008 6.31103 4.02612 6.25287C4.08911 6.18748 4.2607 6.18329 4.2607 6.18329L5.40378 6.17672C5.40378 6.17672 5.51151 6.19252 5.58862 6.24211C5.65216 6.28304 5.68778 6.35957 5.68778 6.35957C5.68778 6.35957 5.87252 6.76907 6.11721 7.13954C6.59475 7.86277 6.81717 8.02097 6.97932 7.94349C7.21553 7.8305 7.14472 6.92108 7.14472 6.92108C7.14472 6.92108 7.14907 6.59097 7.0258 6.44401C6.93034 6.33007 6.75027 6.29685 6.67077 6.28752C6.60647 6.28 6.71204 6.14912 6.84888 6.09038C7.05458 6.00205 7.41787 5.99701 7.84708 6.00091C8.18147 6.00386 8.2777 6.02214 8.40846 6.04984C8.71183 6.11404 8.70237 6.31976 8.68196 6.76362C8.67586 6.89625 8.66879 7.05014 8.66879 7.22787C8.66879 7.26786 8.66746 7.31048 8.66609 7.35433C8.659 7.58166 8.65089 7.84192 8.82159 7.93863C8.90913 7.98813 9.1233 7.94606 9.65894 7.14887C9.91286 6.77107 10.1032 6.32683 10.1032 6.32683C10.1032 6.32683 10.1448 6.24763 10.2095 6.21365C10.2756 6.179 10.3648 6.18966 10.3648 6.18966L11.5677 6.1831C11.5677 6.1831 11.9291 6.14531 11.9877 6.28828C12.049 6.43839 11.8526 6.78887 11.3611 7.36294C10.8976 7.90445 10.6707 8.10579 10.6886 8.2824C10.7018 8.41323 10.8493 8.53049 11.1343 8.76238C11.7265 9.24409 11.8843 9.49702 11.9218 9.55713C11.9248 9.56199 11.9271 9.56559 11.9287 9.56795C12.1937 9.95308 11.6348 9.98325 11.6348 9.98325L10.5665 9.99629C10.5665 9.99629 10.3369 10.0362 10.0347 9.85427C9.87671 9.75923 9.72223 9.60401 9.57505 9.45612C9.35005 9.23004 9.1421 9.02109 8.96463 9.07041C8.66683 9.15322 8.67617 9.71559 8.67617 9.71559C8.67617 9.71559 8.67834 9.83571 8.61046 9.89968C8.53672 9.96936 8.39228 9.98325 8.39228 9.98325Z" fill="#2D3440"/>
</svg>

<svg xmlns="http://www.w3.org/2000/svg" width="16" height="16" fill="none"><path fill="#2D3440" fill-rule="evenodd" d="M16 8A8 8 0 1 1 0 8a8 8 0 0 1 16 0ZM8.392 9.983h-.478s-1.055.056-1.984-.792c-1.013-.925-1.908-2.76-1.908-2.76s-.052-.12.004-.178c.063-.066.235-.07.235-.07l1.143-.006s.108.016.185.065c.063.041.099.118.099.118s.185.41.43.78c.477.723.7.881.861.803.237-.112.166-1.022.166-1.022s.004-.33-.12-.477c-.095-.114-.275-.147-.354-.156-.065-.008.041-.139.178-.198.206-.088.569-.093.998-.09.334.004.43.022.561.05.304.064.294.27.274.714a9.697 9.697 0 0 0-.013.464l-.003.126c-.007.228-.015.488.156.585.087.05.301.007.837-.79.254-.378.444-.822.444-.822s.042-.08.107-.113c.066-.035.155-.024.155-.024l1.203-.007s.361-.038.42.105c.061.15-.135.5-.627 1.075-.463.541-.69.743-.672.92.013.13.16.247.445.48.592.481.75.734.788.794a.326.326 0 0 0 .007.01c.265.386-.294.416-.294.416l-1.069.013s-.23.04-.531-.142c-.158-.095-.313-.25-.46-.398-.225-.226-.433-.435-.61-.386-.298.083-.289.646-.289.646s.002.12-.066.184c-.073.07-.218.083-.218.083Z" clip-rule="evenodd"/></svg>
